svgs/thin/square-info.svg

<svg xmlns="http://www.w3.org/2000/svg" viewBox="0 0 448 512"><!-- Font Awesome Pro 6.0.0-alpha2 by @fontawesome - https://fontawesome.com License - https://fontawesome.com/license (Commercial License) --><path d="M223.918 176C232.74 176 239.918 168.822 239.918 160S232.74 144 223.918 144S207.918 151.178 207.918 160S215.096 176 223.918 176ZM256 352H231.98V216.047C231.98 216.029 232 216.018 232 216C232 211.594 228.406 208 224 208H192C187.594 208 184 211.594 184 216S187.594 224 192 224H215.98V352H192C187.594 352 184 355.594 184 360S187.594 368 192 368H256C260.406 368 264 364.406 264 360S260.406 352 256 352ZM384 32H64C28.656 32 0 60.656 0 96V416C0 451.344 28.656 480 64 480H384C419.348 480 448 451.344 448 416V96C448 60.656 419.348 32 384 32ZM432 416C432 442.469 410.469 464 384 464H64C37.531 464 16 442.469 16 416V96C16 69.531 37.531 48 64 48H384C410.469 48 432 69.531 432 96V416Z"/></svg>

<svg xmlns="http://www.w3.org/2000/svg" viewBox="0 0 448 512"><!--! Font Awesome Pro 6.3.0 by @fontawesome - https://fontawesome.com License - https://fontawesome.com/license (Commercial License) Copyright 2023 Fonticons, Inc. --><path d="M223.9 176c8.822 0 16-7.178 16-16s-7.178-16-16-16s-16 7.178-16 16S215.1 176 223.9 176zM256 352h-24.02l.0098-135.1c0-.0176 0 .0176 0 0C231.1 211.6 228.4 208 224 208H192c-4.406 0-8 3.594-8 8S187.6 224 192 224h23.98v128H192c-4.406 0-8 3.594-8 8S187.6 368 192 368h64c4.406 0 8-3.594 8-8S260.4 352 256 352zM384 32H64C28.66 32 0 60.66 0 96v320c0 35.34 28.66 64 64 64h320c35.35 0 64-28.66 64-64V96C448 60.66 419.3 32 384 32zM432 416c0 26.47-21.53 48-48 48H64c-26.47 0-48-21.53-48-48V96c0-26.47 21.53-48 48-48h320c26.47 0 48 21.53 48 48V416z"/></svg>
